; generated by PrusaSlicer 2.6.0+MacOS-arm64 on 2023-06-29 at 21:27:31 UTC


;
;
; 

; external perimeters extrusion width = 0.45mm
; perimeters extrusion width = 0.45mm
; infill extrusion width = 0.45mm
; solid infill extrusion width = 0.45mm
; top infill extrusion width = 0.40mm
; first layer extrusion width = 0.42mm

M73 P0 R65
M73 Q0 S65
M201 X1000 Y1000 Z200 E5000 ; sets maximum accelerations, mm/sec^2
M203 X200 Y200 Z12 E120 ; sets maximum feedrates, mm / sec
M204 S1250 T1250 ; sets acceleration (S) and retract acceleration (R), mm/sec^2
M205 X8.00 Y8.00 Z0.40 E4.50 ; sets the jerk limits, mm/sec
M205 S0 T0 ; sets the minimum extruding and travel feed rate, mm/sec
;TYPE:Custom
M862.3 P "MK3S" ; printer model check
M862.1 P0.4 ; nozzle diameter check
M115 U3.12.1 ; tell printer latest fw version
G90 ; use absolute coordinates
M83 ; extruder relative mode
M104 S215 ; set extruder temp
M140 S60 ; set bed temp
M190 S60 ; wait for bed temp
M109 S215 ; wait for extruder temp
G28 W ; home all without mesh bed level
G80 ; mesh bed leveling

G1 Z0.2 F720
G1 Y-3 F1000 ; go outside print area
G92 E0
G1 X60 E9 F1000 ; intro line
G1 X200.00 E30 F500.0 ; intro line for Revo

G92 E0
M221 S95

; Don't change E values below. Excessive value can damage the printer.
M907 E430 ; set extruder motor current
G21 ; set units to millimeters
G90 ; use absolute coordinates
M83 ; use relative distances for extrusion
M900 K0.05 ; Filament gcode LA 1.5
M900 K30 ; Filament gcode LA 1.0
M107
;LAYER_CHANGE
;Z:0.2
;HEIGHT:0.2
;BEFORE_LAYER_CHANGE
G92 E0.0
;0.2


G1 E-.8 F2100
M73 P0 R64
G1 Z.4 F720
;AFTER_LAYER_CHANGE
;0.2
G1 X46.29 Y116.552 F10800
G1 Z.2 F720
G1 E.8 F2100
M204 S800
;TYPE:Skirt/Brim
;WIDTH:0.42
G1 F1200
G1 X47.23 Y116.359 E.03009
G1 X102.249 Y116.359 E1.72508
G1 X165.893 Y116.861 E1.99558
M73 Q0 S64
G1 X167.197 Y117.263 E.04278
G1 X168.065 Y118.315 E.04276
G1 X168.251 Y119.238 E.02952
G1 X168.251 Y169.238 E1.56771
G1 X167.86 Y170.545 E.04277
G1 X166.814 Y171.421 E.04278
G1 X165.874 Y171.615 E.03009
G1 X110.855 Y171.615 E1.72508
G1 X47.211 Y171.113 E1.99558
G1 X45.907 Y170.711 E.04278
G1 X45.039 Y169.658 E.04279
G1 X44.853 Y168.736 E.02949
G1 X44.853 Y118.736 E1.56771
G1 X45.244 Y117.429 E.04277
M73 P1 R64
M73 Q1 S64
G1 X46.244 Y116.591 E.04091
M204 S1000
; printing object bracket (Meshed).stl id:0 copy 0
;WIPE_START
G1 F8640
G1 X47.23 Y116.359 E-.23389
G1 X49.682 Y116.359 E-.56611
;WIPE_END
G1 Z.6 F720
G1 X101.443 Y167.949 F10800
G1 Z.2 F720
G1 E.8 F2100
M204 S800
;TYPE:Perimeter
;WIDTH:0.419999
G1 F1200
G1 X48.017 Y167.949 E1.67513
G1 X48.017 Y119.523 E1.51836
G1 X101.443 Y119.523 E1.67513
G1 X101.443 Y167.889 E1.51648
M204 S1000
G1 X101.82 Y168.326 F10800
M204 S800
;TYPE:External perimeter
G1 F1200
G1 X47.64 Y168.326 E1.69877
G1 X47.64 Y119.146 E1.542
G1 X101.82 Y119.146 E1.69877
G1 X101.82 Y168.266 E1.54012
M204 S1000
G1 X101.432 Y168.229 F10800
;WIPE_START
G1 F8640
G1 X98.355 Y168.27 E-.8
;WIPE_END
G1 Z.6 F720
G1 X92.922 Y165.501 F10800
G1 Z.2 F720
G1 E.8 F2100
M204 S800
;TYPE:Perimeter
G1 F1200
G1 X92.742 Y165.456 E.00582
G1 X92.556 Y165.297 E.00767
G1 X92.465 Y165.116 E.00635
G1 X92.443 Y164.957 E.00503
G1 X92.443 Y122.514 E1.33077
G1 X92.465 Y122.356 E.005
G1 X92.556 Y122.175 E.00635
G1 X92.742 Y122.015 E.00769
G1 X92.911 Y121.957 E.0056
G1 X96.451 Y121.949 E.11099
G1 X96.723 Y122.018 E.0088
G1 X96.91 Y122.184 E.00784
G1 X96.998 Y122.368 E.0064
G1 X97.017 Y122.514 E.00462
G1 X97.017 Y164.957 E1.33077
G1 X96.998 Y165.103 E.00462
G1 X96.91 Y165.288 E.00642
G1 X96.723 Y165.453 E.00782
G1 X96.451 Y165.523 E.00881
G1 X92.98 Y165.516 E.10883
M204 S1000
G1 X93.008 Y165.146 F10800
M204 S800
;TYPE:External perimeter
G1 F1200
G1 X92.858 Y165.07 E.00527
G1 X92.82 Y164.957 E.00374
G1 X92.82 Y122.514 E1.33077
G1 X92.858 Y122.401 E.00374
M73 P1 R63
G1 X93.008 Y122.326 E.00526
G1 X96.451 Y122.326 E.10795
G1 X96.604 Y122.404 E.00538
G1 X96.64 Y122.514 E.00363
G1 X96.64 Y164.957 E1.33077
G1 X96.604 Y165.068 E.00366
G1 X96.451 Y165.146 E.00538
G1 X93.068 Y165.146 E.10607
M204 S1000
G1 X92.885 Y165.26 F10800
;WIPE_START
G1 F8640
G1 X92.858 Y165.07 E-.05157
G1 X92.82 Y164.957 E-.02753
G1 X92.82 Y161.835 E-.7209
;WIPE_END
G1 Z.6 F720
G1 X76.538 Y165.501 F10800
G1 Z.2 F720
G1 E.8 F2100
M204 S800
;TYPE:Perimeter
G1 F1200
G1 X76.451 Y165.523 E.00281
G1 X73.008 Y165.523 E.10795
G1 X72.742 Y165.456 E.0086
G1 X72.556 Y165.297 E.00767
G1 X72.465 Y165.116 E.00635
G1 X72.443 Y164.957 E.00503
G1 X72.443 Y122.514 E1.33077
G1 X72.465 Y122.356 E.005
G1 X72.556 Y122.175 E.00635
G1 X72.742 Y122.015 E.00769
G1 X73.008 Y121.949 E.00859
G1 X76.451 Y121.949 E.10795
G1 X76.718 Y122.015 E.00862
G1 X76.904 Y122.175 E.00769
G1 X76.994 Y122.356 E.00634
G1 X77.017 Y122.514 E.00501
G1 X77.017 Y164.957 E1.33077
G1 X76.994 Y165.116 E.00504
G1 X76.904 Y165.297 E.00634
G1 X76.718 Y165.456 E.00767
G1 X76.596 Y165.487 E.00395
M204 S1000
G1 X76.451 Y165.146 F10800
M204 S800
;TYPE:External perimeter
G1 F1200
G1 X73.008 Y165.146 E.10795
G1 X72.858 Y165.07 E.00527
G1 X72.82 Y164.957 E.00374
G1 X72.82 Y122.514 E1.33077
G1 X72.858 Y122.401 E.00374
M73 P2 R63
M73 Q2 S64
G1 X73.008 Y122.326 E.00526
G1 X76.451 Y122.326 E.10795
G1 X76.602 Y122.401 E.00529
G1 X76.64 Y122.514 E.00374
G1 X76.64 Y164.957 E1.33077
G1 X76.602 Y165.07 E.00374
G1 X76.505 Y165.119 E.00341
M204 S1000
G1 X76.348 Y165.532 F10800
;WIPE_START
G1 F8640
G1 X73.04 Y165.146 E-.8
;WIPE_END
G1 Z.6 F720
G1 X52.92 Y165.5 F10800
G1 Z.2 F720
G1 E.8 F2100
M204 S800
;TYPE:Perimeter
G1 F1200
G1 X52.737 Y165.453 E.00592
G1 X52.55 Y165.288 E.00782
G1 X52.451 Y165.055 E.00794
G1 X52.443 Y164.957 E.00308
G1 X52.443 Y122.514 E1.33077
G1 X52.462 Y122.368 E.00462
G1 X52.55 Y122.184 E.0064
G1 X52.737 Y122.018 E.00784
G1 X53.008 Y121.949 E.00877
G1 X56.451 Y121.949 E.10795
G1 X56.718 Y122.015 E.00862
G1 X56.904 Y122.175 E.00769
G1 X56.994 Y122.356 E.00634
G1 X57.017 Y122.514 E.00501
G1 X57.017 Y164.957 E1.33077
G1 X56.994 Y165.116 E.00504
M73 Q2 S63
G1 X56.904 Y165.297 E.00634
G1 X56.718 Y165.456 E.00767
G1 X56.451 Y165.523 E.00863
G1 X52.978 Y165.515 E.10889
M204 S1000
G1 X53.008 Y165.146 F10800
M204 S800
;TYPE:External perimeter
G1 F1200
G1 X52.856 Y165.068 E.00536
G1 X52.82 Y164.957 E.00366
G1 X52.82 Y122.514 E1.33077
G1 X52.856 Y122.404 E.00363
G1 X53.008 Y122.326 E.00536
G1 X56.451 Y122.326 E.10795
G1 X56.602 Y122.401 E.00529
G1 X56.64 Y122.514 E.00374
G1 X56.64 Y164.957 E1.33077
G1 X56.602 Y165.07 E.00374
G1 X56.451 Y165.146 E.0053
G1 X53.068 Y165.146 E.10607
M204 S1000
G1 X52.881 Y165.262 F10800
;WIPE_START
G1 F8640
G1 X52.856 Y165.068 E-.05216
G1 X52.82 Y164.957 E-.02694
G1 X52.82 Y161.835 E-.7209
;WIPE_END
G1 Z.6 F720
G1 X100.507 Y119.693 F10800
G1 Z.2 F720
G1 E.8 F2100
M204 S800
;TYPE:Solid infill
;WIDTH:0.421721
G1 F1200
G1 X101.103 Y120.289 E.02655
G1 X101.103 Y120.825 E.01688
G1 X100.141 Y119.862 E.04287
G1 X99.605 Y119.862 E.01688
G1 X101.103 Y121.36 E.06673
G1 X101.103 Y121.896 E.01688
G1 X99.07 Y119.862 E.09058
G1 X98.534 Y119.862 E.01688
G1 X101.103 Y122.432 E.11446
G1 X101.103 Y122.967 E.01685
G1 X97.998 Y119.862 E.13831
G1 X97.463 Y119.862 E.01685
G1 X101.103 Y123.503 E.16216
G1 X101.103 Y124.039 E.01688
G1 X96.927 Y119.862 E.18604
G1 X96.391 Y119.862 E.01688
G1 X101.103 Y124.574 E.20989
G1 X101.103 Y125.11 E.01688
G1 X95.856 Y119.862 E.23375
G1 X95.32 Y119.862 E.01688
G1 X101.103 Y125.646 E.25762
G1 X101.103 Y126.182 E.01688
G1 X97.346 Y122.424 E.16737
G1 X97.326 Y122.276 E.0047
G1 X97.186 Y121.981 E.01029
G1 X96.886 Y121.716 E.01261
G1 X96.552 Y121.63 E.01086
G1 X94.614 Y119.693 E.0863
M204 S1000
;WIPE_START
G1 F8640
G1 X96.552 Y121.63 E-.63268
G1 X96.886 Y121.716 E-.07964
G1 X97.171 Y121.967 E-.08768
;WIPE_END
G1 Z.6 F720
G1 X96.165 Y121.779 F10800
G1 Z.2 F720
G1 E.8 F2100
M204 S800
G1 F1200
G1 X94.248 Y119.862 E.08539
G1 X93.713 Y119.862 E.01685
G1 X95.46 Y121.609 E.07782
G1 X94.924 Y121.609 E.01688
G1 X93.177 Y119.862 E.07782
G1 X92.641 Y119.862 E.01688
G1 X94.388 Y121.609 E.07782
G1 X93.853 Y121.609 E.01685
G1 X92.106 Y119.862 E.07782
G1 X91.57 Y119.862 E.01688
G1 X93.317 Y121.609 E.07782
G1 X93.002 Y121.609 E.00992
G1 X92.808 Y121.636 E.00617
G1 X91.034 Y119.862 E.07902
G1 X90.498 Y119.862 E.01688
G1 X92.456 Y121.82 E.08722
G1 X92.284 Y121.967 E.00713
G1 X92.212 Y122.111 E.00507
G1 X89.963 Y119.862 E.10018
G1 X89.427 Y119.862 E.01688
G1 X92.103 Y122.539 E.11922
G1 X92.103 Y123.074 E.01685
G1 X88.891 Y119.862 E.14308
G1 X88.356 Y119.862 E.01685
G1 X92.103 Y123.61 E.16693
G1 X92.103 Y124.146 E.01688
G1 X87.82 Y119.862 E.1908
G1 X87.284 Y119.862 E.01688
G1 X92.103 Y124.681 E.21466
G1 X92.103 Y125.217 E.01688
G1 X86.749 Y119.862 E.23851
G1 X86.213 Y119.862 E.01688
G1 X92.103 Y125.753 E.26239
G1 X92.103 Y126.289 E.01688
G1 X85.677 Y119.862 E.28626
G1 X85.141 Y119.862 E.01688
G1 X92.103 Y126.824 E.31012
G1 X92.103 Y127.36 E.01688
G1 X84.606 Y119.862 E.33397
G1 X84.07 Y119.862 E.01688
G1 X92.103 Y127.896 E.35784
G1 X92.103 Y128.431 E.01685
G1 X83.534 Y119.862 E.3817
G1 X82.999 Y119.862 E.01685
G1 X92.103 Y128.967 E.40555
G1 X92.103 Y129.503 E.01688
G1 X82.463 Y119.862 E.42943
G1 X81.927 Y119.862 E.01688
G1 X92.103 Y130.039 E.4533
G1 X92.103 Y130.574 E.01685
G1 X81.391 Y119.862 E.47716
G1 X80.856 Y119.862 E.01685
G1 X92.103 Y131.11 E.50101
G1 X92.103 Y131.646 E.01688
G1 X80.32 Y119.862 E.52489
G1 X79.784 Y119.862 E.01688
G1 X92.103 Y132.181 E.54874
G1 X92.103 Y132.717 E.01688
G1 X79.249 Y119.862 E.57259
G1 X78.713 Y119.862 E.01688
G1 X92.103 Y133.253 E.59647
G1 X92.103 Y133.788 E.01685
G1 X78.177 Y119.862 E.62032
G1 X77.642 Y119.862 E.01685
G1 X92.103 Y134.324 E.64417
G1 X92.103 Y134.86 E.01688
G1 X77.106 Y119.862 E.66805
G1 X76.57 Y119.862 E.01688
G1 X92.103 Y135.396 E.69193
G1 X92.103 Y135.931 E.01685
G1 X76.034 Y119.862 E.71578
G1 X75.499 Y119.862 E.01685
G1 X92.103 Y136.467 E.73963
G1 X92.103 Y137.003 E.01688
G1 X74.963 Y119.862 E.76351
G1 X74.427 Y119.862 E.01688
M73 P3 R63
M73 Q3 S63
G1 X76.174 Y121.609 E.07782
G1 X75.639 Y121.609 E.01685
G1 X73.892 Y119.862 E.07782
G1 X73.356 Y119.862 E.01688
G1 X75.103 Y121.609 E.07782
G1 X74.567 Y121.609 E.01688
G1 X72.82 Y119.862 E.07782
G1 X72.284 Y119.862 E.01688
G1 X74.032 Y121.609 E.07784
G1 X73.496 Y121.609 E.01688
G1 X71.749 Y119.862 E.07782
G1 X71.213 Y119.862 E.01688
G1 X72.964 Y121.613 E.078
G1 X72.847 Y121.623 E.0037
G1 X72.552 Y121.737 E.00996
G1 X70.677 Y119.862 E.08352
G1 X70.142 Y119.862 E.01685
G1 X72.271 Y121.992 E.09486
G1 X72.139 Y122.258 E.00935
G1 X72.121 Y122.378 E.00382
G1 X69.606 Y119.862 E.11205
G1 X69.07 Y119.862 E.01688
G1 X72.103 Y122.895 E.1351
G1 X72.103 Y123.431 E.01688
G1 X68.535 Y119.862 E.15896
G1 X67.999 Y119.862 E.01688
G1 X72.103 Y123.967 E.18283
G1 X72.103 Y124.503 E.01688
G1 X67.463 Y119.862 E.20671
G1 X66.927 Y119.862 E.01688
G1 X72.103 Y125.038 E.23056
G1 X72.103 Y125.574 E.01688
G1 X66.392 Y119.862 E.25441
G1 X65.856 Y119.862 E.01688
G1 X72.103 Y126.11 E.27829
G1 X72.103 Y126.645 E.01685
G1 X65.32 Y119.862 E.30214
G1 X64.785 Y119.862 E.01685
G1 X72.103 Y127.181 E.326
G1 X72.103 Y127.717 E.01688
G1 X64.249 Y119.862 E.34987
G1 X63.713 Y119.862 E.01688
G1 X72.103 Y128.253 E.37375
G1 X72.103 Y128.788 E.01685
G1 X63.178 Y119.862 E.39758
G1 X62.642 Y119.862 E.01688
G1 X72.103 Y129.324 E.42145
G1 X72.103 Y129.86 E.01688
G1 X62.106 Y119.862 E.44533
G1 X61.57 Y119.862 E.01688
G1 X72.103 Y130.395 E.46918
G1 X72.103 Y130.931 E.01688
M73 P3 R62
G1 X61.035 Y119.862 E.49304
G1 X60.499 Y119.862 E.01688
G1 X72.103 Y131.467 E.51691
G1 X72.103 Y132.002 E.01685
G1 X59.963 Y119.862 E.54077
G1 X59.428 Y119.862 E.01685
G1 X72.103 Y132.538 E.56462
G1 X72.103 Y133.074 E.01688
G1 X58.892 Y119.862 E.58849
G1 X58.356 Y119.862 E.01688
G1 X72.103 Y133.61 E.61237
G1 X72.103 Y134.145 E.01685
G1 X57.82 Y119.862 E.63622
G1 X57.285 Y119.862 E.01685
G1 X72.103 Y134.681 E.66008
G1 X72.103 Y135.217 E.01688
G1 X56.749 Y119.862 E.68395
G1 X56.213 Y119.862 E.01688
G1 X72.103 Y135.752 E.70781
G1 X72.103 Y136.288 E.01688
G1 X55.678 Y119.862 E.73166
G1 X55.142 Y119.862 E.01688
G1 X72.103 Y136.824 E.75553
G1 X72.103 Y137.36 E.01688
G1 X57.356 Y122.612 E.65691
G1 X57.321 Y122.258 E.0112
G1 X57.176 Y121.967 E.01024
G1 X56.877 Y121.711 E.0124
G1 X56.47 Y121.609 E.01322
G1 X56.353 Y121.609 E.00369
G1 X54.606 Y119.862 E.07782
G1 X54.071 Y119.862 E.01685
G1 X55.818 Y121.609 E.07782
G1 X55.282 Y121.609 E.01688
G1 X53.535 Y119.862 E.07782
G1 X52.999 Y119.862 E.01688
G1 X54.746 Y121.609 E.07782
G1 X54.21 Y121.609 E.01688
G1 X52.463 Y119.862 E.07782
G1 X51.928 Y119.862 E.01685
G1 X53.675 Y121.609 E.07782
G1 X53.139 Y121.609 E.01688
G1 X51.392 Y119.862 E.07782
G1 X50.856 Y119.862 E.01688
G1 X52.676 Y121.682 E.08107
G1 X52.568 Y121.72 E.00361
G1 X52.361 Y121.903 E.0087
G1 X50.321 Y119.862 E.09089
G1 X49.785 Y119.862 E.01688
G1 X52.154 Y122.232 E.10555
G1 X52.133 Y122.276 E.00154
G1 X52.103 Y122.505 E.00727
G1 X52.103 Y122.717 E.00668
G1 X49.249 Y119.862 E.12715
G1 X48.713 Y119.862 E.01688
G1 X52.103 Y123.252 E.151
G1 X52.103 Y123.788 E.01688
G1 X48.356 Y120.041 E.16691
G1 X48.356 Y120.577 E.01688
G1 X52.103 Y124.324 E.16691
G1 X52.103 Y124.859 E.01685
G1 X48.356 Y121.112 E.16691
G1 X48.356 Y121.648 E.01688
M73 Q3 S62
G1 X52.103 Y125.395 E.16691
G1 X52.103 Y125.931 E.01688
G1 X48.356 Y122.184 E.16691
G1 X48.356 Y122.719 E.01685
G1 X52.103 Y126.467 E.16693
G1 X52.103 Y127.002 E.01685
G1 X48.356 Y123.255 E.16691
G1 X48.356 Y123.791 E.01688
G1 X52.103 Y127.538 E.16691
G1 X52.103 Y128.074 E.01688
G1 X48.356 Y124.327 E.16691
G1 X48.356 Y124.862 E.01685
G1 X52.103 Y128.609 E.16691
G1 X52.103 Y129.145 E.01688
G1 X48.356 Y125.398 E.16691
G1 X48.356 Y125.934 E.01688
G1 X52.103 Y129.681 E.16691
G1 X52.103 Y130.216 E.01685
G1 X48.356 Y126.469 E.16691
G1 X48.356 Y127.005 E.01688
G1 X52.103 Y130.752 E.16691
G1 X52.103 Y131.288 E.01688
G1 X48.356 Y127.541 E.16691
G1 X48.356 Y128.076 E.01685
G1 X52.103 Y131.824 E.16693
G1 X52.103 Y132.359 E.01685
G1 X48.356 Y128.612 E.16691
G1 X48.356 Y129.148 E.01688
G1 X52.103 Y132.895 E.16691
G1 X52.103 Y133.431 E.01688
G1 X48.356 Y129.684 E.16691
G1 X48.356 Y130.219 E.01685
G1 X52.103 Y133.966 E.16691
G1 X52.103 Y134.502 E.01688
G1 X48.356 Y130.755 E.16691
G1 X48.356 Y131.291 E.01688
G1 X52.103 Y135.038 E.16691
G1 X52.103 Y135.574 E.01688
G1 X48.356 Y131.826 E.16693
G1 X48.356 Y132.362 E.01688
G1 X52.103 Y136.109 E.16691
G1 X52.103 Y136.645 E.01688
G1 X48.356 Y132.898 E.16691
G1 X48.356 Y133.434 E.01688
G1 X52.103 Y137.181 E.16691
G1 X52.103 Y137.716 E.01685
G1 X48.356 Y133.969 E.16691
G1 X48.356 Y134.505 E.01688
G1 X52.103 Y138.252 E.16691
G1 X52.103 Y138.788 E.01688
G1 X48.356 Y135.041 E.16691
G1 X48.356 Y135.576 E.01685
G1 X52.103 Y139.323 E.16691
G1 X52.103 Y139.859 E.01688
G1 X48.356 Y136.112 E.16691
G1 X48.356 Y136.648 E.01688
G1 X52.103 Y140.395 E.16691
G1 X52.103 Y140.931 E.01688
G1 X48.356 Y137.183 E.16693
G1 X48.356 Y137.719 E.01688
G1 X52.103 Y141.466 E.16691
G1 X52.103 Y142.002 E.01688
G1 X48.356 Y138.255 E.16691
G1 X48.356 Y138.791 E.01688
G1 X52.103 Y142.538 E.16691
G1 X52.103 Y143.073 E.01685
G1 X48.356 Y139.326 E.16691
G1 X48.356 Y139.862 E.01688
G1 X52.103 Y143.609 E.16691
G1 X52.103 Y144.145 E.01688
G1 X48.356 Y140.398 E.16691
G1 X48.356 Y140.933 E.01685
G1 X52.103 Y144.681 E.16693
G1 X52.103 Y145.216 E.01685
G1 X48.356 Y141.469 E.16691
G1 X48.356 Y142.005 E.01688
G1 X52.103 Y145.752 E.16691
G1 X52.103 Y146.288 E.01688
G1 X48.356 Y142.541 E.16691
G1 X48.356 Y143.076 E.01685
M73 P4 R62
G1 X52.103 Y146.823 E.16691
M73 Q4 S62
G1 X52.103 Y147.359 E.01688
G1 X48.356 Y143.612 E.16691
G1 X48.356 Y144.148 E.01688
G1 X52.103 Y147.895 E.16691
G1 X52.103 Y148.43 E.01685
G1 X48.356 Y144.683 E.16691
G1 X48.356 Y145.219 E.01688
G1 X52.103 Y148.966 E.16691
G1 X52.103 Y149.502 E.01688
G1 X48.356 Y145.755 E.16691
G1 X48.356 Y146.29 E.01685
G1 X52.103 Y150.038 E.16693
G1 X52.103 Y150.573 E.01685
G1 X48.356 Y146.826 E.16691
G1 X48.356 Y147.362 E.01688
G1 X52.103 Y151.109 E.16691
G1 X52.103 Y151.645 E.01688
G1 X48.356 Y147.898 E.16691
G1 X48.356 Y148.433 E.01685
G1 X52.103 Y152.18 E.16691
G1 X52.103 Y152.716 E.01688
